build/payment/VisaWhiteS.svg

<svg xmlns="http://www.w3.org/2000/svg" fill="none" viewBox="0 0 22 10" focusable="false"><path fill="none" d="M0 0H22V10H0z"/><path d="M0 0H22V10H0z"/><path fill="#FFF" fill-rule="evenodd" d="M11.9026 2.11403L10.5664 8.36084L8.95028 8.36084L10.2866 2.11403L11.9026 2.11403ZM18.7018 6.14786L19.5526 3.80187L20.042 6.14786L18.7018 6.14786ZM20.5058 8.36084L22.0001 8.36084L20.6945 2.11403L19.3161 2.11403C19.0053 2.11403 18.7436 2.2942 18.6276 2.57197L16.2026 8.36084L17.8999 8.36084L18.2368 7.42798L20.3099 7.42798L20.5058 8.36084ZM16.2865 6.32159C16.2936 4.67306 14.0075 4.58164 14.0227 3.84497C14.0277 3.6211 14.2411 3.38278 14.708 3.32184C14.9394 3.29197 15.578 3.26782 16.302 3.60131L16.5851 2.27607C16.1961 2.13549 15.6958 2 15.0733 2C13.4757 2 12.3517 2.84861 12.3427 4.06483C12.3325 4.96418 13.1457 5.4657 13.757 5.7652C14.3872 6.07126 14.5984 6.26769 14.5954 6.54121C14.591 6.9603 14.0927 7.14592 13.6289 7.15284C12.8159 7.16559 12.3447 6.93322 11.9691 6.75804L11.6758 8.12759C12.0539 8.30059 12.7509 8.45137 13.4724 8.45902C15.1708 8.45902 16.2816 7.62037 16.2865 6.32159ZM9.59341 2.11403L6.97487 8.36084L5.26672 8.36084L3.97802 3.37541C3.89996 3.06899 3.83185 2.95621 3.59427 2.82679C3.20566 2.61555 2.56404 2.41815 2 2.29541L2.03812 2.11403L4.78815 2.11403C5.13852 2.11403 5.45356 2.34713 5.53369 2.75067L6.2144 6.3657L7.89559 2.11403L9.59341 2.11403Z"/></svg>

<svg xmlns="http://www.w3.org/2000/svg" fill="none" viewBox="0 0 23 10" focusable="false"><path fill="none" d="M0 0h22v10H0z"/><path fill="#FFF" fill-rule="evenodd" d="m11.9 2.11-1.34 6.25H8.95l1.33-6.25zm6.8 4.03.85-2.34.49 2.34zm1.8 2.22H22l-1.31-6.25h-1.38a.74.74 0 0 0-.69.46L16.2 8.36h1.69l.34-.94h2.07zm-4.22-2.04c.01-1.65-2.28-1.74-2.26-2.48 0-.22.22-.46.68-.52.23-.03.87-.06 1.6.28l.28-1.33A4.4 4.4 0 0 0 15.07 2c-1.6 0-2.72.84-2.73 2.06-.01.9.8 1.4 1.41 1.7.63.31.84.5.84.78 0 .42-.5.6-.97.61-.81.01-1.28-.22-1.66-.4l-.29 1.37c.38.18 1.08.33 1.8.33 1.7 0 2.81-.83 2.81-2.13M9.59 2.11 6.97 8.36H5.26L3.97 3.37c-.08-.31-.14-.42-.38-.55-.39-.21-1.03-.41-1.59-.53l.03-.18h2.75c.35 0 .67.23.75.64l.68 3.61 1.68-4.25z"/></svg>
